ufans-frontend-package/public/assets/images/new-chat/token-icon-new.svg

<svg width="20" height="20" viewBox="0 0 20 20" fill="none" xmlns="http://www.w3.org/2000/svg">
<g clip-path="url(#clip0_319_24)">
<path d="M17.7438 10.1017L15.5679 6.74162C15.3992 6.48119 15.1133 6.32568 14.803 6.32568H5.20274C4.89294 6.32568 4.60728 6.4808 4.43856 6.74057L2.25591 10.1011C2.03286 10.4445 2.06731 10.8978 2.3397 11.2035L9.31868 19.0387C9.49142 19.2326 9.73939 19.3438 9.99907 19.3438C9.99911 19.3438 9.99907 19.3438 9.99911 19.3438C10.2588 19.3438 10.5068 19.2326 10.6795 19.0387L17.6593 11.2031C17.9313 10.8978 17.966 10.4449 17.7438 10.1017ZM14.3622 7.10689L12.5323 9.93658L10.7013 7.10689H14.3622ZM11.8144 10.2652H8.18376L9.99907 7.45975L11.8144 10.2652ZM9.29685 7.10697L7.47087 9.92889L5.64552 7.10697H9.29685V7.10697ZM4.92321 7.42865L6.75798 10.2652H3.08091L4.92321 7.42865ZM3.24591 11.0464H7.17735L9.2561 17.7939L3.24591 11.0464ZM9.99907 17.552L7.99481 11.0464H12.0033L9.99907 17.552ZM10.742 17.7941L12.8208 11.0465H16.7526L10.742 17.7941ZM13.2502 10.2652L15.0833 7.43061L16.9188 10.2652H13.2502Z" fill="#6661E7"/>
<path d="M1.18488 10.2651H0.390625C0.174922 10.2651 0 10.44 0 10.6558C0 10.8715 0.174922 11.0464 0.390625 11.0464H1.18488C1.40059 11.0464 1.57551 10.8715 1.57551 10.6558C1.57551 10.44 1.40059 10.2651 1.18488 10.2651Z" fill="#6661E7"/>
<path d="M19.6107 10.2651H18.8164C18.6007 10.2651 18.4258 10.44 18.4258 10.6558C18.4258 10.8715 18.6007 11.0464 18.8164 11.0464H19.6107C19.8264 11.0464 20.0013 10.8715 20.0013 10.6558C20.0013 10.44 19.8264 10.2651 19.6107 10.2651Z" fill="#6661E7"/>
<path d="M17.0777 3.58657C16.9251 3.43403 16.6778 3.43403 16.5252 3.58657L15.2277 4.88411C15.0751 5.03665 15.0751 5.28399 15.2277 5.43653C15.304 5.51282 15.404 5.55095 15.5039 5.55095C15.6039 5.55095 15.7039 5.51278 15.7801 5.43653L17.0777 4.13899C17.2302 3.98646 17.2302 3.73915 17.0777 3.58657Z" fill="#6661E7"/>
<path d="M4.79249 4.87731L3.49499 3.57974C3.34249 3.4272 3.09522 3.4272 2.94253 3.57974C2.78999 3.73228 2.78999 3.97962 2.94253 4.13216L4.24007 5.4297C4.31636 5.50599 4.41632 5.54411 4.51628 5.54411C4.61624 5.54411 4.7162 5.50595 4.79249 5.4297C4.94503 5.2772 4.94503 5.02981 4.79249 4.87731Z" fill="#6661E7"/>
<path d="M10.0117 0.655762C9.79602 0.655762 9.62109 0.830645 9.62109 1.04639V3.59201C9.62109 3.80775 9.79598 3.98264 10.0117 3.98264C10.2274 3.98264 10.4023 3.80775 10.4023 3.59201V1.04639C10.4023 0.830684 10.2274 0.655762 10.0117 0.655762Z" fill="#6661E7"/>
<path d="M10.2839 4.6374C10.2113 4.56475 10.1105 4.52295 10.0078 4.52295C9.90508 4.52295 9.8043 4.56475 9.73164 4.6374C9.65898 4.71006 9.61719 4.81084 9.61719 4.91357C9.61719 5.0167 9.65895 5.11709 9.73164 5.18975C9.8043 5.26279 9.90508 5.3042 10.0078 5.3042C10.1105 5.3042 10.2113 5.26279 10.2839 5.18975C10.357 5.11709 10.3984 5.01631 10.3984 4.91357C10.3984 4.81084 10.357 4.7101 10.2839 4.6374Z" fill="#6661E7"/>
</g>
<defs>
<clipPath id="clip0_319_24">
<rect width="20" height="20" fill="white"/>
</clipPath>
</defs>
</svg>

<svg xmlns="http://www.w3.org/2000/svg" xmlns:xlink="http://www.w3.org/1999/xlink" width="20" height="20" viewBox="0 0 20 20">
  <defs>
    <clipPath id="clip-path">
      <rect id="Rectangle_1" data-name="Rectangle 1" width="20" height="20" fill="#e44499"/>
    </clipPath>
  </defs>
  <g id="token-icon-new" clip-path="url(#clip-path)">
    <path id="Path_1" data-name="Path 1" d="M17.744,10.1,15.568,6.74a.908.908,0,0,0-.765-.416H5.2a.908.908,0,0,0-.764.415L2.256,10.1a.913.913,0,0,0,.084,1.1l6.979,7.835a.912.912,0,0,0,.68.305h0a.912.912,0,0,0,.68-.305l6.98-7.836a.914.914,0,0,0,.085-1.1ZM14.362,7.107l-1.83,2.83L10.7,7.107Zm-2.548,3.158H8.184L10,7.46ZM9.3,7.107,7.471,9.929,5.646,7.107Zm-4.374.322,1.835,2.837H3.081Zm-1.68,3.617H7.177l2.079,6.747ZM10,17.552,8,11.046h4Zm.743.242,2.079-6.748h3.932Zm2.508-7.529L15.084,7.43l1.836,2.835Z" fill="#e44499"/>
    <path id="Path_2" data-name="Path 2" d="M1.185,10.265H.391a.391.391,0,0,0,0,.781h.794a.391.391,0,0,0,0-.781Z" fill="#e44499"/>
    <path id="Path_3" data-name="Path 3" d="M19.611,10.265h-.794a.391.391,0,0,0,0,.781h.794a.391.391,0,0,0,0-.781Z" fill="#e44499"/>
    <path id="Path_4" data-name="Path 4" d="M17.078,3.587a.391.391,0,0,0-.552,0l-1.3,1.3a.391.391,0,1,0,.552.552l1.3-1.3A.391.391,0,0,0,17.078,3.587Z" fill="#e44499"/>
    <path id="Path_5" data-name="Path 5" d="M4.792,4.877l-1.3-1.3a.391.391,0,0,0-.552.552l1.3,1.3a.391.391,0,1,0,.552-.552Z" fill="#e44499"/>
    <path id="Path_6" data-name="Path 6" d="M10.012.656a.391.391,0,0,0-.391.391V3.592a.391.391,0,1,0,.781,0V1.046a.391.391,0,0,0-.39-.39Z" fill="#e44499"/>
    <path id="Path_7" data-name="Path 7" d="M10.284,4.637a.39.39,0,1,0,.115.276.39.39,0,0,0-.115-.276Z" fill="#e44499"/>
  </g>
</svg>
